build/img/social-media.svg

<svg width="32" height="32" viewBox="0 0 32 32" fill="none" xmlns="http://www.w3.org/2000/svg">
<path d="M5.33333 24H8V29.4413L14.8013 24H21.3333C22.804 24 24 22.804 24 21.3333V10.6667C24 9.196 22.804 8 21.3333 8H5.33333C3.86267 8 2.66667 9.196 2.66667 10.6667V21.3333C2.66667 22.804 3.86267 24 5.33333 24Z" fill="#000080"/>
<path d="M26.6667 2.66669H10.6667C9.196 2.66669 8 3.86269 8 5.33335H24C25.4707 5.33335 26.6667 6.52935 26.6667 8.00002V18.6667C28.1373 18.6667 29.3333 17.4707 29.3333 16V5.33335C29.3333 3.86269 28.1373 2.66669 26.6667 2.66669Z" fill="#000080"/>
</svg>

<svg width="32" height="32" fill="none" xmlns="http://www.w3.org/2000/svg"><path d="M5.333 24H8v5.441L14.801 24h6.532A2.67 2.67 0 0024 21.333V10.667A2.67 2.67 0 0021.333 8h-16a2.67 2.67 0 00-2.666 2.667v10.666A2.67 2.67 0 005.333 24z" fill="navy"/><path d="M26.667 2.667h-16A2.67 2.67 0 008 5.333h16A2.67 2.67 0 0126.667 8v10.667A2.67 2.67 0 0029.333 16V5.333a2.67 2.67 0 00-2.666-2.666z" fill="navy"/></svg>
